src/main/resources/icons/SpringCoreIcons/icons/gutter/springModelsDependencyGraph.svg

<svg xmlns="http://www.w3.org/2000/svg" width="12" height="12" viewBox="0 0 12 12">
  <g fill="none" fill-rule="evenodd">
    <path fill="#62B543" fill-opacity=".7" d="M11.2192131,10.9899124 C10.2096983,12.3338846 8.05467708,11.8829171 6.67242601,11.9454275 C6.67242601,11.9454275 6.42774027,11.9593187 6.18106925,12 C6.18106925,12 6.2743774,11.9603109 6.39349419,11.9191335 C7.36379971,11.5837605 7.82289567,11.5162891 8.41302009,11.2131636 C9.52080623,10.6456094 10.6241255,9.40978998 10.8479658,8.12584753 C10.4260938,9.36117083 9.14310675,10.4238465 7.97526589,10.8544733 C7.17519812,11.1491649 5.72892177,11.4369109 5.72892177,11.437407 L5.67035602,11.4061518 C4.68664987,10.9278981 4.65935227,8.79907392 6.44511147,8.11294857 C7.22830436,7.81180751 7.97725117,7.97750951 8.8234767,7.7755912 C9.72628269,7.56127005 10.7715325,6.88258641 11.1963824,6 C11.6733459,7.41293203 12.2456028,9.6231189 11.2192131,10.9899124 Z"/>
    <rect width="4" height="4" x="8" fill="#9AA7B0" fill-opacity=".8"/>
    <rect width="1" height="1" x="4" y="1" fill="#9AA7B0" fill-opacity=".8"/>
    <rect width="1" height="1" x="6" y="1" fill="#9AA7B0" fill-opacity=".8"/>
    <rect width="3" height="3" fill="#9AA7B0" fill-opacity=".8"/>
    <rect width="4" height="4" y="8" fill="#9AA7B0" fill-opacity=".8"/>
    <rect width="1" height="1" x="1" y="6" fill="#9AA7B0" fill-opacity=".8"/>
    <rect width="1" height="1" x="1" y="4" fill="#9AA7B0" fill-opacity=".8"/>
  </g>
</svg>

<svg xmlns="http://www.w3.org/2000/svg" width="12" height="12" viewBox="0 0 12 12"><rect id="frame" width="12" height="12" fill="none"/><g fill="none" fill-rule="evenodd"><path fill="#62B543" fill-opacity=".7" d="M11.22 10.99c-1.01 1.344-3.165.893-4.548.955 0 0-.244.014-.49.055 0 0 .092-.04.211-.08.97-.336 1.43-.404 2.02-.707 1.108-.567 2.211-1.803 2.435-3.087-.422 1.235-1.705 2.298-2.873 2.728-.8.295-2.246.583-2.246.583l-.059-.03c-.983-.48-1.01-2.608.775-3.294.783-.301 1.532-.135 2.378-.337.903-.215 1.949-.893 2.373-1.776.477 1.413 1.05 3.623.023 4.99z"/><path fill="#9AA7B0" fill-opacity=".8" d="M8 0h4v4H8z"/><path fill="#9AA7B0" fill-opacity=".8" d="M4 1h1v1H4z"/><path fill="#9AA7B0" fill-opacity=".8" d="M6 1h1v1H6z"/><path fill="#9AA7B0" fill-opacity=".8" d="M0 0h3v3H0z"/><path fill="#9AA7B0" fill-opacity=".8" d="M0 8h4v4H0z"/><path fill="#9AA7B0" fill-opacity=".8" d="M1 6h1v1H1z"/><path fill="#9AA7B0" fill-opacity=".8" d="M1 4h1v1H1z"/></g></svg>
